X: 42300
T: Wedding Day, The
R: reel
M: 4/4
K: Dmajor
D2 D>E F>A A2|B>AF>D E>D B2|D2 D>E F>A A2|B>AF>D E2 A2|
D>AD>E F>A (3AAA|B>A (3FED E>D B2|d2 d>A B>AF>B|A>DG>F E2:|
d2 d>e f>d (3Bcd|c2 c>d e>cA>F|G2 G>A B2 (3GFE|F>AG>F (3EFE (3ABc|
[1 d2 d>e f>dB>d|c>Ac>d e>cA>F|G>DG>A B>G (3dcB|A>dG>F E2:|
[2 d2 d>e f>a (3aaa|b>da>d g>AA>a|f>a (3agf B>c (3dcB|e>A (3edc d2||

